X: 13
T: Dálaigh's (Downeys 1, Cormac Begley version)
R: polka
M: 2/4
L: 1/8
K: Edor
B,|:E2 FA|Be ed|Bd/B/ AF|EF D2|
E>F GA|Be ed|Bd/B/ AF|1 FE ED:|2 DE E2||
|:e e2 f|af ed|Be eB|fa d2|
Be ef|af ed| Bd/B/ AF|1 FE E2:|2 DE ED||


